X: 1
T: the Ladies Frae Hell
C: J. MacMillan Tait
S: TIF file from George Meikle
L: 1/8
M: 2/4
R: Reel
Q: 1/4=106
K: Amix=g
   e/d/ \
|  cA   AA/a/    | cA       ef/e/ | cB    ce       | f2 fg/a/ \
|  bf   ab       | a/g/f/e/ fg/a/ | cB/c/ c/A/c/e/ | f2 f     :|
|: f/e/ \
|  cf   f/g/f/e/ | cf       fa/f/ | ec    c/B/c/e/ | f2 fg/a/ \
|  bf   ab       | a/g/f/e/ fg/a/ | cB/c/ c/A/c/e/ | f2 f     :|
|: e/d/ \
|  cA   AA/a/    | cA       ef/e/ | cB    ce       | f2 fg/a/ \
|  bf   ab       | a/g/f/e/ fg/a/ | cB/c/ c/A/c/e/ | f2 f     :|
|: e/c/ \
|  Ac   e/f/e/d/ | cA       Aa/e/ | Ac    a/g/f/e/ | f2 fg/a/ \
|  bf   ab       | a/g/f/e/ fg/a/ | cB/c/ c/A/c/e/ | f2 f     :|
